icons-dark/actions/22/view-calendar-list.svg

<?xml version="1.0" encoding="UTF-8" standalone="no"?>
<!-- Created with Inkscape (http://www.inkscape.org/) -->

<svg
   xmlns:dc="http://purl.org/dc/elements/1.1/"
   xmlns:cc="http://creativecommons.org/ns#"
   xmlns:rdf="http://www.w3.org/1999/02/22-rdf-syntax-ns#"
   xmlns:svg="http://www.w3.org/2000/svg"
   xmlns="http://www.w3.org/2000/svg"
   xmlns:sodipodi="http://sodipodi.sourceforge.net/DTD/sodipodi-0.dtd"
   xmlns:inkscape="http://www.inkscape.org/namespaces/inkscape"
   width="22"
   height="22"
   id="svg3049"
   version="1.1"
   inkscape:version="0.48+devel r"
   sodipodi:docname="view-calendar-list.svg"
   inkscape:export-filename="/home/uri/.kde/share/icons/NITRUX-KDE/16x16/actions/view-right-new.png"
   inkscape:export-xdpi="30"
   inkscape:export-ydpi="30">
  <defs
     id="defs3051" />
  <sodipodi:namedview
     id="base"
     pagecolor="#ffffff"
     bordercolor="#666666"
     borderopacity="1.0"
     inkscape:pageopacity="0.0"
     inkscape:pageshadow="2"
     inkscape:zoom="32"
     inkscape:cx="8.344654"
     inkscape:cy="10.78231"
     inkscape:document-units="px"
     inkscape:current-layer="layer1"
     showgrid="true"
     fit-margin-top="0"
     fit-margin-left="0"
     fit-margin-right="0"
     fit-margin-bottom="0"
     inkscape:window-width="1366"
     inkscape:window-height="669"
     inkscape:window-x="-4"
     inkscape:window-y="25"
     inkscape:window-maximized="1"
     inkscape:showpageshadow="false"
     borderlayer="true"
     showguides="true">
    <sodipodi:guide
       position="2.0000044,20.00003"
       orientation="18,0"
       id="guide4067" />
    <sodipodi:guide
       position="2.0000044,2.0000296"
       orientation="0,18"
       id="guide4069" />
    <sodipodi:guide
       position="20.000004,2.0000296"
       orientation="-18,0"
       id="guide4071" />
    <sodipodi:guide
       position="20.000004,20.00003"
       orientation="0,-18"
       id="guide4073" />
    <sodipodi:guide
       position="3.0000044,19.00003"
       orientation="16,0"
       id="guide4077" />
    <sodipodi:guide
       position="3.0000044,3.0000296"
       orientation="0,16"
       id="guide4079" />
    <sodipodi:guide
       position="19.000004,3.0000296"
       orientation="-16,0"
       id="guide4081" />
    <sodipodi:guide
       position="19.000004,19.00003"
       orientation="0,-16"
       id="guide4083" />
    <inkscape:grid
       type="xygrid"
       id="grid4085" />
  </sodipodi:namedview>
  <metadata
     id="metadata3054">
    <rdf:RDF>
      <cc:Work
         rdf:about="">
        <dc:format>image/svg+xml</dc:format>
        <dc:type
           rdf:resource="http://purl.org/dc/dcmitype/StillImage" />
        <dc:title />
      </cc:Work>
    </rdf:RDF>
  </metadata>
  <g
     inkscape:label="Capa 1"
     inkscape:groupmode="layer"
     id="layer1"
     transform="translate(-421.71429,-525.79074)">
    <path
       style="opacity:1;fill:#f2f2f2;fill-opacity:1;stroke:none;stroke-width:0.1;stroke-miterlimit:4;stroke-dasharray:none;stroke-opacity:1"
       d="m 4,3 0,2 -1,0 0,1 1,0 0,1 -1,0 0,1 1,0 0,6 -1,0 0,1 1,0 0,1 -1,0 0,1 1,0 0,2 3,0 12,0 0,-1 L 19,3 7,3 Z m 3,1 2,0 1,0 8,0 0,2 0,1 0,2 0,1 0,2 0,1 0,2 0,1 0,2 -8,0 L 9,18 7,18 7,16 7,15 7,13 7,12 7,10 7,9 7,7 7,6 Z m 1,2 0,1 9,0 0,-1 z m 0,4 0,1 9,0 0,-1 z m 0,4 0,1 9,0 0,-1 z"
       transform="translate(421.71429,525.79074)"
       id="rect4151"
       inkscape:connector-curvature="0"
       sodipodi:nodetypes="cccccccccccccccccccccccccccccccccccccccccccccccccccccccccccccccc" />
  </g>
</svg>

<svg xmlns="http://www.w3.org/2000/svg" viewBox="0 0 22 22">
  <defs id="defs3051">
    <style type="text/css" id="current-color-scheme">
      .ColorScheme-Text {
        color:#f2f2f2
      }
      </style>
  </defs>
 <path 
    style="fill:currentColor;fill-opacity:1;stroke:none" 
    d="M 4 3 L 4 5 L 3 5 L 3 6 L 4 6 L 4 7 L 3 7 L 3 8 L 4 8 L 4 14 L 3 14 L 3 15 L 4 15 L 4 16 L 3 16 L 3 17 L 4 17 L 4 19 L 7 19 L 19 19 L 19 18 L 19 3 L 7 3 L 4 3 z M 7 4 L 9 4 L 10 4 L 18 4 L 18 6 L 18 7 L 18 9 L 18 10 L 18 12 L 18 13 L 18 15 L 18 16 L 18 18 L 10 18 L 9 18 L 7 18 L 7 16 L 7 15 L 7 13 L 7 12 L 7 10 L 7 9 L 7 7 L 7 6 L 7 4 z M 8 6 L 8 7 L 17 7 L 17 6 L 8 6 z M 8 10 L 8 11 L 17 11 L 17 10 L 8 10 z M 8 14 L 8 15 L 17 15 L 17 14 L 8 14 z "
	class="ColorScheme-Text"
    />  
</svg>
